theme/icons/crop.svg

<svg fill="none" height="24" viewBox="0 0 24 24" width="24" xmlns="http://www.w3.org/2000/svg"><path clip-rule="evenodd" d="m7.93164 9.00891v6.99109h7.06836v4.0089h2v-4.0089h3.9316v-2h-3.9316v-6.99109h-7.06836v-4.00891h-2v4.00891h-3.93164v2zm2 0v4.99109h5.06836v-4.99109z" fill="#f4f4f7" fill-rule="evenodd"/></svg>

<svg fill="none" height="24" width="24" xmlns="http://www.w3.org/2000/svg">
    <path clip-rule="evenodd" d="M7.932 9.009V16H15v4.009h2V16h3.932v-2H17V7.009H9.932V3h-2v4.009H4v2zm2 0V14H15V9.009z" fill="#f4f4f7" fill-rule="evenodd"/>
</svg>
